fritzing/parts/svg/core/breadboard/basic_fsr.svg

<?xml version="1.0" encoding="utf-8"?>
<!DOCTYPE svg PUBLIC "-//W3C//DTD SVG 1.1//EN" "http://www.w3.org/Graphics/SVG/1.1/DTD/svg11.dtd">
<svg version="1.1"
	 id="svg2" xmlns:rdf="http://www.w3.org/1999/02/22-rdf-syntax-ns#" xmlns:svg="http://www.w3.org/2000/svg" xmlns:dc="http://purl.org/dc/elements/1.1/" xmlns:cc="http://creativecommons.org/ns#"
	 xmlns="http://www.w3.org/2000/svg" xmlns:xlink="http://www.w3.org/1999/xlink" x="0px" y="0px" width="0.70in" height="2.185in"
	 viewBox="0 0 70 218.5" enable-background="new 0 0 70 218.5" xml:space="preserve">
<rect id="connector0pin" x="27.02" y="213.338" fill="#B8B135" width="6" height="5.162"/>
<rect id="connector1pin" x="36.981" y="213.286" fill="#B8B135" width="6" height="5.217"/>
<rect id="connector1terminal" x="38.353" y="215.352" fill="#B8B135" width="3" height="3.143"/>
<rect id="connector0terminal" x="28.351" y="215.352" fill="#B8B135" width="3" height="3.143"/>
<g id="breadboard">
	<g id="g9">
		
			<rect id="rect11" x="21.484" y="57" opacity="0.75" fill="#00947E" enable-background="new    " width="27.037" height="147.527"/>
		<circle id="circle13" cx="35.001" cy="35" r="35"/>
		<rect id="rect15" x="21.483" y="60.102" width="27.036" height="10.418"/>
		<path id="path17" fill="#808080" d="M6.55,35c0,12.941,8.644,23.85,20.47,27.301v156.202h6V63.375v-1.412v-0.309
			c-4.191-0.309-8.112-1.586-11.545-3.604h21.17c0.551-0.184,1.092-0.381,1.623-0.602H20.502c-1.53-0.988-2.956-2.127-4.249-3.398
			h33.8c0.248-0.195,0.491-0.396,0.73-0.602H15.666c-1.008-1.055-1.928-2.191-2.753-3.398h41.14
			c0.157-0.199,0.314-0.396,0.468-0.602H12.51c-0.697-1.082-1.318-2.217-1.856-3.398h45.971c0.104-0.199,0.206-0.398,0.303-0.602
			H10.396c-0.468-1.098-0.862-2.232-1.181-3.398h49.028c0.06-0.199,0.113-0.4,0.17-0.602H9.053
			c-0.275-1.107-0.475-2.242-0.605-3.398H59.09c0.022-0.201,0.056-0.4,0.074-0.602H8.382C8.309,36.643,8.268,35.826,8.268,35
			c0-0.32,0.031-0.633,0.043-0.949h50.952c-0.009-0.201-0.019-0.402-0.029-0.603H8.338c0.066-1.152,0.185-2.291,0.393-3.397h50.047
			c-0.041-0.203-0.092-0.4-0.139-0.603H8.868c0.246-1.162,0.561-2.297,0.952-3.397h47.755c-0.079-0.201-0.157-0.402-0.242-0.603
			h-47.3c0.451-1.178,0.994-2.309,1.601-3.397h43.907c-0.127-0.201-0.253-0.404-0.388-0.603H11.954
			c0.707-1.199,1.517-2.328,2.396-3.397h38.033c-0.196-0.205-0.401-0.404-0.606-0.603h-36.92c1.084-1.242,2.285-2.375,3.579-3.397
			h28.841c-0.354-0.209-0.719-0.41-1.086-0.603H19.22c1.9-1.393,3.987-2.543,6.223-3.397h12.195V9.449H27.222
			c1.038-0.313,2.092-0.592,3.18-0.781V6.926C16.876,9.125,6.55,20.854,6.55,35z"/>
		<path id="path19" fill="#808080" d="M39.603,8.668c2.889,0.502,5.604,1.484,8.096,2.832H28.863
			c-0.662,0.172-1.312,0.375-1.949,0.602h21.847c1.618,0.973,3.119,2.115,4.49,3.398H20.527c-0.261,0.195-0.517,0.396-0.77,0.602
			h34.141c1.054,1.051,2.021,2.186,2.885,3.398H16.308c-0.163,0.197-0.319,0.398-0.476,0.602h41.342
			c0.729,1.082,1.397,2.211,1.968,3.398H13.61c-0.106,0.197-0.207,0.4-0.308,0.602h46.096c0.49,1.098,0.916,2.229,1.258,3.398
			H11.902c-0.064,0.199-0.125,0.4-0.186,0.602h49.108c0.295,1.105,0.504,2.242,0.655,3.398H10.971
			c-0.028,0.199-0.052,0.4-0.076,0.602h50.667c0.104,0.953,0.174,1.918,0.174,2.898c0,0.168-0.01,0.334-0.014,0.5H10.73
			c0.004,0.201,0.007,0.402,0.015,0.602H61.71c-0.047,1.154-0.17,2.287-0.357,3.398H11.14c0.038,0.201,0.075,0.402,0.118,0.602
			h49.99c-0.226,1.162-0.529,2.295-0.897,3.398H12.25c0.075,0.203,0.156,0.402,0.236,0.602H60.14
			c-0.426,1.174-0.931,2.309-1.51,3.398H14.18c0.122,0.203,0.251,0.402,0.379,0.602h43.745c-0.672,1.193-1.433,2.328-2.273,3.398
			H17.19c0.188,0.203,0.377,0.404,0.572,0.602h37.779c-1.026,1.232-2.165,2.369-3.396,3.398H21.99
			c0.326,0.209,0.658,0.408,0.996,0.602h28.414c-1.754,1.363-3.689,2.5-5.754,3.398H33.512v0.602h10.639
			c-2.266,0.826-4.664,1.369-7.166,1.553v0.309v1.412V218.5h6v-156.2C54.81,58.85,63.453,47.941,63.453,35
			c0-14.146-10.326-25.875-23.853-28.074v1.742H39.603z"/>
		<rect id="rect21" x="27.02" y="204.5" fill="#B8B135" width="6" height="14"/>
		<rect id="rect23" x="36.981" y="204.5" fill="#B8B135" width="6" height="14"/>
	</g>
</g>
</svg>

<?xml version="1.0" encoding="UTF-8" standalone="no"?>
<svg
   xmlns:dc="http://purl.org/dc/elements/1.1/"
   xmlns:cc="http://creativecommons.org/ns#"
   xmlns:rdf="http://www.w3.org/1999/02/22-rdf-syntax-ns#"
   xmlns:svg="http://www.w3.org/2000/svg"
   xmlns="http://www.w3.org/2000/svg"
   xmlns:sodipodi="http://sodipodi.sourceforge.net/DTD/sodipodi-0.dtd"
   xmlns:inkscape="http://www.inkscape.org/namespaces/inkscape"
   version="1.2"
   baseProfile="tiny"
   x="0px"
   y="0px"
   width=".78in"
   height="2.43in"
   xml:space="preserve"
   id="svg2"
   sodipodi:version="0.32"
   inkscape:version="0.46"
   sodipodi:docname="basic_fsr.svg"
   inkscape:output_extension="org.inkscape.output.svg.inkscape"><metadata
   id="metadata28"><rdf:RDF><cc:Work
       rdf:about=""><dc:format>image/svg+xml</dc:format><dc:type
         rdf:resource="http://purl.org/dc/dcmitype/StillImage" /></cc:Work></rdf:RDF></metadata><defs
   id="defs26"><inkscape:perspective
     sodipodi:type="inkscape:persp3d"
     inkscape:vp_x="0 : 109.35001 : 1"
     inkscape:vp_y="0 : 1000 : 0"
     inkscape:vp_z="70.199997 : 109.35001 : 1"
     inkscape:persp3d-origin="35.099998 : 72.900004 : 1"
     id="perspective30" /></defs><sodipodi:namedview
   inkscape:window-height="852"
   inkscape:window-width="1440"
   inkscape:pageshadow="2"
   inkscape:pageopacity="0.0"
   guidetolerance="10.0"
   gridtolerance="10.0"
   objecttolerance="10.0"
   borderopacity="1.0"
   bordercolor="#666666"
   pagecolor="#ffffff"
   id="base"
   showgrid="false"
   inkscape:zoom="18.216734"
   inkscape:cx="42.812393"
   inkscape:cy="6.9887347"
   inkscape:window-x="0"
   inkscape:window-y="22"
   inkscape:current-layer="svg2" />

<rect
   id="connector0pin"
   x="27.018"
   y="213.33904"
   width="6"
   height="5.1619725"
   style="fill:#b8b135" />
<rect
   id="connector1pin"
   x="36.980999"
   y="213.28413"
   width="6"
   height="5.216867"
   style="fill:#b8b135" />
<rect
   id="connector1terminal"
   x="38.349"
   y="215.352"
   fill="#B8B135"
   width="3"
   height="3.142" />
<rect
   id="connector0terminal"
   x="28.349"
   y="215.352"
   fill="#B8B135"
   width="3"
   height="3.142" />

<g
   id="breadboard"
   style="display:inline">
	<g
   id="g9">
	<rect
   x="21.482"
   y="57"
   enable-background="new    "
   width="27.035999"
   height="147.52713"
   id="rect11"
   style="opacity:0.75;fill:#00947e" />
	<circle
   cx="34.999001"
   cy="35"
   r="35"
   id="circle13"
   sodipodi:cx="34.999001"
   sodipodi:cy="35"
   sodipodi:rx="35"
   sodipodi:ry="35" />
	<rect
   x="21.481001"
   y="60.102001"
   width="27.035"
   height="10.418"
   id="rect15" />
	<path
   d="M 6.548,35 C 6.548,47.941 15.192,58.85 27.018,62.301 L 27.018,218.501 L 33.018,218.501 L 33.018,63.375 L 33.018,61.963 L 33.018,61.654 C 28.826,61.345 24.906,60.068 21.472,58.05 L 42.642,58.05 C 43.193,57.866 43.734,57.669 44.265,57.448 L 20.5,57.448 C 18.97,56.46 17.544,55.321 16.251,54.05 L 50.051,54.05 C 50.299,53.855 50.542,53.654 50.781,53.448 L 15.664,53.448 C 14.656,52.393 13.736,51.257 12.911,50.05 L 54.051,50.05 C 54.208,49.851 54.365,49.654 54.518,49.448 L 12.508,49.448 C 11.811,48.366 11.19,47.231 10.652,46.05 L 56.623,46.05 C 56.727,45.851 56.829,45.652 56.926,45.448 L 10.394,45.448 C 9.926,44.35 9.532,43.216 9.213,42.05 L 58.241,42.05 C 58.301,41.851 58.355,41.65 58.411,41.448 L 9.051,41.448 C 8.776,40.341 8.576,39.206 8.446,38.05 L 59.088,38.05 C 59.111,37.849 59.143,37.65 59.162,37.448 L 8.38,37.448 C 8.307,36.643 8.266,35.826 8.266,35 C 8.266,34.68 8.297,34.367 8.309,34.051 L 59.26,34.051 C 59.252,33.85 59.242,33.649 59.231,33.448 L 8.336,33.448 C 8.402,32.296 8.521,31.157 8.729,30.051 L 58.777,30.051 C 58.736,29.848 58.685,29.651 58.638,29.448 L 8.866,29.448 C 9.112,28.286 9.427,27.151 9.818,26.051 L 57.573,26.051 C 57.494,25.85 57.416,25.649 57.331,25.448 L 10.031,25.448 C 10.482,24.27 11.025,23.139 11.632,22.051 L 55.539,22.051 C 55.412,21.85 55.286,21.647 55.152,21.448 L 11.952,21.448 C 12.659,20.249 13.469,19.12 14.348,18.051 L 52.381,18.051 C 52.184,17.846 51.979,17.647 51.774,17.448 L 14.854,17.448 C 15.938,16.206 17.139,15.073 18.433,14.051 L 47.276,14.051 C 46.921,13.842 46.557,13.641 46.19,13.448 L 19.218,13.448 C 21.118,12.055 23.205,10.905 25.441,10.051 L 37.635,10.051 L 37.635,9.449 L 27.22,9.449 C 28.258,9.136 29.313,8.857 30.4,8.668 L 30.4,6.926 C 16.874,9.125 6.548,20.854 6.548,35 z"
   id="path17"
   style="fill:#808080" />
	<path
   d="M 39.6,8.668 C 42.488,9.17 45.205,10.152 47.695,11.5 L 28.861,11.5 C 28.199,11.672 27.549,11.875 26.912,12.102 L 48.759,12.102 C 50.377,13.075 51.878,14.217 53.249,15.5 L 20.525,15.5 C 20.264,15.695 20.008,15.896 19.755,16.102 L 53.895,16.102 C 54.948,17.153 55.915,18.288 56.78,19.5 L 16.306,19.5 C 16.143,19.697 15.987,19.898 15.83,20.102 L 57.172,20.102 C 57.901,21.184 58.57,22.313 59.139,23.5 L 13.608,23.5 C 13.502,23.697 13.401,23.9 13.3,24.102 L 59.395,24.102 C 59.885,25.2 60.311,26.331 60.653,27.5 L 11.9,27.5 C 11.836,27.699 11.775,27.9 11.714,28.102 L 60.822,28.102 C 61.117,29.207 61.326,30.344 61.478,31.5 L 10.969,31.5 C 10.941,31.699 10.917,31.9 10.893,32.102 L 61.56,32.102 C 61.664,33.055 61.734,34.02 61.734,35 C 61.734,35.168 61.724,35.334 61.72,35.5 L 10.728,35.5 C 10.732,35.701 10.735,35.902 10.743,36.102 L 61.708,36.102 C 61.661,37.256 61.538,38.389 61.35,39.5 L 11.138,39.5 C 11.176,39.701 11.213,39.902 11.256,40.102 L 61.246,40.102 C 61.021,41.264 60.717,42.397 60.348,43.5 L 12.248,43.5 C 12.323,43.703 12.404,43.902 12.484,44.102 L 60.137,44.102 C 59.712,45.276 59.207,46.411 58.628,47.5 L 14.178,47.5 C 14.3,47.703 14.429,47.902 14.557,48.102 L 58.302,48.102 C 57.63,49.295 56.869,50.43 56.028,51.5 L 17.188,51.5 C 17.376,51.703 17.565,51.904 17.76,52.102 L 55.539,52.102 C 54.512,53.334 53.374,54.471 52.143,55.5 L 21.988,55.5 C 22.314,55.709 22.646,55.908 22.984,56.102 L 51.397,56.102 C 49.643,57.465 47.707,58.602 45.643,59.5 L 33.51,59.5 L 33.51,60.102 L 44.149,60.102 C 41.884,60.928 39.485,61.471 36.982,61.655 L 36.982,61.964 L 36.982,63.376 L 36.982,218.502 L 42.982,218.502 L 42.982,62.302 C 54.807,58.85 63.451,47.941 63.451,35 C 63.451,20.854 53.125,9.125 39.599,6.926 L 39.6,8.668 L 39.6,8.668 z"
   id="path19"
   style="fill:#808080" />
	<rect
   x="27.018"
   y="204.50101"
   width="6"
   height="14"
   id="rect21"
   style="fill:#b8b135" />
	<rect
   x="36.980999"
   y="204.50101"
   width="6"
   height="14"
   id="rect23"
   style="fill:#b8b135" />
</g></g>

</svg>
